dist/svg/add.svg

<!-- Generated by Trend Micro Style Portal -->
<svg version="1.1" xmlns="http://www.w3.org/2000/svg" width="16" height="16" viewBox="0 0 16 16">
  <title>add</title>
  <path fill="rgb(34,34,34)" d="M15 9h-6v6h-2v-6h-6v-2h6v-6h2v6h6v2z"></path>
</svg>

<svg width="16" height="16" viewBox="0 0 16 16" fill="rgb(34, 34, 34)" xmlns="http://www.w3.org/2000/svg"><title>add</title><path d="M15 9H9V15H7V9H1V7H7V1H9V7H15V9Z" fill="rgb(34, 34, 34)" fill-opacity="1.00"/></svg>
